X: 151108
T: The GREENHILLS OF TYROL
R: Waltz.
%R: waltz
B: James Kerr "Merry Melodies" v.1 p.51 s.1 #8
Z: 2016 John Chambers <jc:trillian.mit.edu>
N: Each of the |c2F| measures has a straight line between the two notes.
M: 3/4
L: 1/8
K: G
uDGA |\
B3 GBc | d3 eBe | dcAFAe | dBGDGA |\
B3 GBc | d3 eBe | dcADFA | G2z H|]\
G2 |\
g4fe | (ed)d2e2 | (dc)c2d2 | (cB)B2G2 |
g4(fe) | (ed)d2e2 | (e^c)c2BA | d2z AfA |\
e2z A^cA | d3 AfA |\
e3 A^cA | de^cede | =cdBdA"^D.C. to"d | G2z !segno!||\
uFGA |\
B3FBF | B3cBA | G3DBD | G3FGA |
B3FBF | B3cBA | G3DBD | G4G2 |\
g4(fe) | (ed)d2e2 | (dc)c2d2 | (cB)B2G2 |\
g4(fe) | (ed)d2e2 | (dc)c2f2 | g2z2 |]

%%sep 1 1 500
%%sep 1 1 500

